assets/aboutus/nohardware 1.svg

<svg width="410" height="410" viewBox="0 0 410 410" fill="none" xmlns="http://www.w3.org/2000/svg">
<g clip-path="url(#clip0_71_352)">
<path d="M200.004 410.002C310.461 410.002 400.004 320.459 400.004 210.002C400.004 99.545 310.461 10.002 200.004 10.002C89.5463 10.002 0.00292969 99.545 0.00292969 210.002C0.00292969 320.459 89.5463 410.002 200.004 410.002Z" fill="url(#paint0_linear_71_352)"/>
<path fill-rule="evenodd" clip-rule="evenodd" d="M246.006 283.002V303.751C246.006 317.625 254.374 330.129 267.2 335.421C272.118 337.449 276.113 339.098 276.113 339.098C278.664 340.15 281.59 338.933 282.642 336.382C283.695 333.831 282.478 330.906 279.927 329.853C279.927 329.853 275.931 328.205 271.013 326.176C261.932 322.43 256.006 313.575 256.006 303.751V283.002C256.006 280.242 253.766 278.002 251.006 278.002C248.246 278.002 246.006 280.242 246.006 283.002Z" fill="url(#paint1_linear_71_352)"/>
<path fill-rule="evenodd" clip-rule="evenodd" d="M217.013 283.002V303.751C217.013 313.575 211.087 322.43 202.006 326.176C202.005 326.176 193.092 329.853 193.092 329.853C190.541 330.906 189.324 333.831 190.377 336.382C191.429 338.933 194.355 340.15 196.906 339.098C196.906 339.098 200.901 337.449 205.819 335.421C218.645 330.129 227.013 317.625 227.013 303.751V283.002C227.013 280.242 224.773 278.002 222.013 278.002C219.253 278.002 217.013 280.242 217.013 283.002Z" fill="url(#paint2_linear_71_352)"/>
<path d="M325.011 162.837H200.01V280.528H325.011V162.837Z" fill="url(#paint3_linear_71_352)"/>
<path fill-rule="evenodd" clip-rule="evenodd" d="M197.506 164.286H320.006V278.002H197.506C194.746 278.002 192.506 280.242 192.506 283.002C192.506 285.762 194.746 288.002 197.506 288.002H325.006C327.768 288.002 330.006 285.763 330.006 283.002V159.286C330.006 156.524 327.768 154.286 325.006 154.286H197.506C194.746 154.286 192.506 156.526 192.506 159.286C192.506 162.045 194.746 164.286 197.506 164.286Z" fill="url(#paint4_linear_71_352)"/>
<path fill-rule="evenodd" clip-rule="evenodd" d="M127.507 112.002C127.507 112.002 94.6227 131.419 80.9053 139.519C77.2499 141.678 75.0068 145.607 75.0068 149.852C75.0068 176.221 75.0068 271.011 75.0068 297.444C75.0068 301.709 77.2714 305.654 80.9537 307.805C94.6996 315.836 127.507 335.002 127.507 335.002" fill="url(#paint5_linear_71_352)"/>
<path fill-rule="evenodd" clip-rule="evenodd" d="M124.965 107.697C124.965 107.697 92.0804 127.114 78.363 135.214C73.1845 138.271 70.0068 143.838 70.0068 149.852C70.0068 176.221 70.0068 271.011 70.0068 297.444C70.0068 303.486 73.2143 309.075 78.4316 312.123C92.1774 320.153 124.985 339.319 124.985 339.319C127.367 340.711 130.432 339.907 131.825 337.524C133.216 335.141 132.412 332.077 130.029 330.685C130.029 330.685 97.2215 311.518 83.4757 303.488C81.3274 302.233 80.0072 299.932 80.0072 297.444C80.0072 271.011 80.0072 176.221 80.0072 149.852C80.0072 147.376 81.315 145.084 83.448 143.825C83.448 143.824 130.049 116.307 130.049 116.307C132.425 114.904 133.215 111.836 131.813 109.46C130.409 107.083 127.341 106.293 124.965 107.697Z" fill="url(#paint6_linear_71_352)"/>
<path fill-rule="evenodd" clip-rule="evenodd" d="M129.438 282.391L76.9375 260.391C74.3925 259.324 71.4605 260.524 70.3945 263.07C69.3275 265.615 70.5275 268.547 73.0735 269.613L125.574 291.613C128.119 292.68 131.051 291.48 132.117 288.934C133.184 286.389 131.984 283.457 129.438 282.391Z" fill="url(#paint7_linear_71_352)"/>
<path d="M197.506 112.002H127.506V335.002H197.506V112.002Z" fill="url(#paint8_linear_71_352)"/>
<path fill-rule="evenodd" clip-rule="evenodd" d="M197.506 340.002C200.268 340.002 202.506 337.763 202.506 335.002V112.002C202.506 109.241 200.268 107.002 197.506 107.002H127.507C124.744 107.002 122.506 109.241 122.506 112.002V335.002C122.506 337.763 124.744 340.002 127.507 340.002H197.506ZM192.507 330.002H132.506C132.506 330.002 132.506 149.552 132.506 117.002H192.507V330.002Z" fill="url(#paint9_linear_71_352)"/>
<path fill-rule="evenodd" clip-rule="evenodd" d="M163.256 134.503C176.088 134.503 186.506 144.922 186.506 157.753C186.506 170.585 176.088 181.003 163.256 181.003C150.424 181.003 140.006 170.585 140.006 157.753C140.006 144.922 150.424 134.503 163.256 134.503ZM163.256 144.503C170.569 144.503 176.506 150.44 176.506 157.753C176.506 165.067 170.569 171.004 163.256 171.004C155.943 171.004 150.006 165.067 150.006 157.753C150.006 150.44 155.943 144.503 163.256 144.503Z" fill="white"/>
<path fill-rule="evenodd" clip-rule="evenodd" d="M160.005 162.752H167.005C169.765 162.752 172.005 160.512 172.005 157.752C172.005 154.992 169.765 152.752 167.005 152.752H160.005C157.245 152.752 155.005 154.992 155.005 157.752C155.005 160.512 157.245 162.752 160.005 162.752Z" fill="url(#paint10_linear_71_352)"/>
<path fill-rule="evenodd" clip-rule="evenodd" d="M163.256 193.003C176.088 193.003 186.506 203.422 186.506 216.253C186.506 229.085 176.088 239.503 163.256 239.503C150.424 239.503 140.006 229.085 140.006 216.253C140.006 203.422 150.424 193.003 163.256 193.003ZM163.256 203.003C170.569 203.003 176.506 208.94 176.506 216.253C176.506 223.567 170.569 229.504 163.256 229.504C155.943 229.504 150.006 223.567 150.006 216.253C150.006 208.94 155.943 203.003 163.256 203.003Z" fill="white"/>
<path fill-rule="evenodd" clip-rule="evenodd" d="M168.509 219.752V212.752C168.509 209.992 166.269 207.752 163.509 207.752C160.749 207.752 158.509 209.992 158.509 212.752V219.752C158.509 222.512 160.749 224.752 163.509 224.752C166.269 224.752 168.509 222.512 168.509 219.752Z" fill="url(#paint11_linear_71_352)"/>
<path fill-rule="evenodd" clip-rule="evenodd" d="M150.508 287.331H174.508C177.267 287.331 179.508 285.091 179.508 282.331C179.508 279.571 177.267 277.331 174.508 277.331H150.508C147.748 277.331 145.508 279.571 145.508 282.331C145.508 285.091 147.748 287.331 150.508 287.331Z" fill="white"/>
<path fill-rule="evenodd" clip-rule="evenodd" d="M157.006 309.331H168.006C170.766 309.331 173.006 307.091 173.006 304.331C173.006 301.571 170.766 299.331 168.006 299.331H157.006C154.246 299.331 152.006 301.571 152.006 304.331C152.006 307.091 154.246 309.331 157.006 309.331Z" fill="white"/>
<path fill-rule="evenodd" clip-rule="evenodd" d="M5.00489 340.002H325.006C327.766 340.002 330.006 337.762 330.006 335.002C330.006 332.243 327.766 330.002 325.006 330.002H5.00489C2.24489 330.002 0.00488281 332.243 0.00488281 335.002C0.00488281 337.762 2.24489 340.002 5.00489 340.002Z" fill="url(#paint12_linear_71_352)"/>
<path fill-rule="evenodd" clip-rule="evenodd" d="M75.3305 330.002H5.00934C2.24967 330.002 0.00928497 332.243 0.00928497 335.002C0.00928497 337.762 2.24967 340.003 5.00934 340.003H75.3305C78.0902 340.003 80.3306 337.762 80.3306 335.002C80.3306 332.243 78.0902 330.002 75.3305 330.002Z" fill="white"/>
<path fill-rule="evenodd" clip-rule="evenodd" d="M340.011 0.00195312C301.377 0.00195312 270.011 31.3682 270.011 70.0022C270.011 108.636 301.377 140.003 340.011 140.003C378.645 140.003 410.012 108.636 410.012 70.0022C410.012 31.3682 378.645 0.00195312 340.011 0.00195312ZM340.011 10.0022C373.126 10.0022 400.011 36.8874 400.011 70.0022C400.011 103.117 373.126 130.002 340.011 130.002C306.896 130.002 280.011 103.117 280.011 70.0022C280.011 36.8874 306.896 10.0022 340.011 10.0022Z" fill="#151515"/>
<path d="M340.011 130.002C373.149 130.002 400.012 103.14 400.012 70.0025C400.012 36.8654 373.149 10.0024 340.011 10.0024C306.874 10.0024 280.011 36.8654 280.011 70.0025C280.011 103.14 306.874 130.002 340.011 130.002Z" fill="#151515"/>
<path fill-rule="evenodd" clip-rule="evenodd" d="M340.013 10C373.128 10 400.013 36.8851 400.013 69.9998C400.013 103.115 373.128 130 340.013 130C306.898 130 280.013 103.115 280.013 69.9998C280.013 36.8851 306.898 10 340.013 10ZM340.013 20.0002C367.609 20.0002 390.013 42.4042 390.013 69.9998C390.013 97.5954 367.609 119.999 340.013 119.999C312.417 119.999 290.013 97.5954 290.013 69.9998C290.013 42.4042 312.417 20.0002 340.013 20.0002Z" fill="url(#paint13_linear_71_352)"/>
<path fill-rule="evenodd" clip-rule="evenodd" d="M311.214 73.5361L328.056 90.3779C330.009 92.3299 333.175 92.3299 335.128 90.3779L368.811 56.6943C370.762 54.7424 370.762 51.5745 368.811 49.6225C366.859 47.6714 363.691 47.6714 361.739 49.6225L331.592 79.771L318.286 66.4643C316.334 64.5132 313.166 64.5132 311.214 66.4643C309.263 68.4163 309.263 71.5842 311.214 73.5361Z" fill="url(#paint14_linear_71_352)"/>
</g>
<defs>
<linearGradient id="paint0_linear_71_352" x1="70.3045" y1="57.8029" x2="350.322" y2="341.873" gradientUnits="userSpaceOnUse">
<stop stop-color="#FF0CF5"/>
<stop offset="1" stop-color="#0575E6"/>
</linearGradient>
<linearGradient id="paint1_linear_71_352" x1="230.655" y1="281.002" x2="230.655" y2="281.002" gradientUnits="userSpaceOnUse">
<stop stop-color="#3AA0FE"/>
<stop offset="1" stop-color="#59FEF4"/>
</linearGradient>
<linearGradient id="paint2_linear_71_352" x1="242.364" y1="281.002" x2="242.364" y2="281.002" gradientUnits="userSpaceOnUse">
<stop stop-color="#3AA0FE"/>
<stop offset="1" stop-color="#59FEF4"/>
</linearGradient>
<linearGradient id="paint3_linear_71_352" x1="0.785676" y1="177.212" x2="0.785676" y2="276.978" gradientUnits="userSpaceOnUse">
<stop stop-color="#36FF78" stop-opacity="0.8"/>
<stop offset="1" stop-color="#0CFFFF" stop-opacity="0.15"/>
</linearGradient>
<linearGradient id="paint4_linear_71_352" x1="251.172" y1="159.286" x2="278.339" y2="283.002" gradientUnits="userSpaceOnUse">
<stop stop-color="#36FF78"/>
<stop offset="1" stop-color="#0CFFFF"/>
</linearGradient>
<linearGradient id="paint5_linear_71_352" x1="75.0068" y1="244.331" x2="127.507" y2="131.502" gradientUnits="userSpaceOnUse">
<stop stop-color="#A83AFE"/>
<stop offset="1" stop-color="#6E59FE"/>
</linearGradient>
<linearGradient id="paint6_linear_71_352" x1="75.0067" y1="304.33" x2="127.507" y2="112.002" gradientUnits="userSpaceOnUse">
<stop stop-color="#3AA0FE"/>
<stop offset="1" stop-color="#59FEF4"/>
</linearGradient>
<linearGradient id="paint7_linear_71_352" x1="75.0055" y1="265.002" x2="127.506" y2="287.002" gradientUnits="userSpaceOnUse">
<stop stop-color="#41B5FC"/>
<stop offset="1" stop-color="#46C3FA"/>
</linearGradient>
<linearGradient id="paint8_linear_71_352" x1="156.006" y1="326.002" x2="180.006" y2="189.332" gradientUnits="userSpaceOnUse">
<stop stop-color="#A83AFE"/>
<stop offset="1" stop-color="#6E59FE"/>
</linearGradient>
<linearGradient id="paint9_linear_71_352" x1="231.006" y1="350.002" x2="127.507" y2="112.002" gradientUnits="userSpaceOnUse">
<stop stop-color="#3AA0FE"/>
<stop offset="1" stop-color="#59FEF4"/>
</linearGradient>
<linearGradient id="paint10_linear_71_352" x1="160.005" y1="157.752" x2="167.005" y2="157.752" gradientUnits="userSpaceOnUse">
<stop stop-color="#3AA0FE"/>
<stop offset="1" stop-color="#59FEF4"/>
</linearGradient>
<linearGradient id="paint11_linear_71_352" x1="163.509" y1="219.752" x2="163.509" y2="212.752" gradientUnits="userSpaceOnUse">
<stop stop-color="#3AA0FE"/>
<stop offset="1" stop-color="#59FEF4"/>
</linearGradient>
<linearGradient id="paint12_linear_71_352" x1="0.00488281" y1="335.002" x2="313.006" y2="335.002" gradientUnits="userSpaceOnUse">
<stop stop-color="#3AA0FE"/>
<stop offset="1" stop-color="#59FEF4"/>
</linearGradient>
<linearGradient id="paint13_linear_71_352" x1="280.013" y1="69.9998" x2="400.013" y2="69.9998" gradientUnits="userSpaceOnUse">
<stop stop-color="#36FF78"/>
<stop offset="1" stop-color="#0CFFFF"/>
</linearGradient>
<linearGradient id="paint14_linear_71_352" x1="310.012" y1="75.0005" x2="365.012" y2="90.0007" gradientUnits="userSpaceOnUse">
<stop stop-color="#36FF78"/>
<stop offset="1" stop-color="#0CFFFF"/>
</linearGradient>
<clipPath id="clip0_71_352">
<rect width="410" height="410" fill="white"/>
</clipPath>
</defs>
</svg>

<svg xmlns="http://www.w3.org/2000/svg" xmlns:xlink="http://www.w3.org/1999/xlink" width="410" height="410" fill="none" xmlns:v="https://vecta.io/nano"><g clip-path="url(#P)"><path d="M200.004 410.002c110.457 0 200-89.543 200-200s-89.543-200-200-200S.003 99.545.003 210.002s89.543 200 200.001 200z" fill="url(#A)"/><g fill-rule="evenodd"><path d="M246.006 283.002v20.749a34.26 34.26 0 0 0 21.194 31.67l8.913 3.677c2.551 1.052 5.477-.165 6.529-2.716s-.164-5.476-2.715-6.529l-8.914-3.677a24.26 24.26 0 0 1-15.007-22.425v-20.749c0-2.76-2.24-5-5-5s-5 2.24-5 5z" fill="url(#B)"/><path d="M217.013 283.002v20.749a24.26 24.26 0 0 1-15.007 22.425c-.001 0-8.914 3.677-8.914 3.677-2.551 1.053-3.768 3.978-2.715 6.529s3.978 3.768 6.529 2.716l8.913-3.677a34.26 34.26 0 0 0 21.194-31.67v-20.749c0-2.76-2.24-5-5-5s-5 2.24-5 5z" fill="url(#C)"/></g><path d="M325.011 162.837H200.01V280.528H325.011V162.837Z" fill="url(#D)"/><g fill-rule="evenodd"><path d="M197.506 164.286h122.5v113.716h-122.5c-2.76 0-5 2.24-5 5s2.24 5 5 5h127.5a5 5 0 0 0 5-5V159.286a5 5 0 0 0-5-5h-127.5c-2.76 0-5 2.24-5 5s2.24 5 5 5z" fill="url(#E)"/><path d="M127.507 112.002l-46.602 27.517a12 12 0 0 0-5.898 10.333v147.592a12 12 0 0 0 5.947 10.361l46.553 27.197" fill="url(#F)"/><path d="M124.965 107.697l-46.602 27.517a17 17 0 0 0-8.356 14.638v147.592a17 17 0 0 0 8.425 14.679l46.553 27.196c2.382 1.392 5.447.588 6.84-1.795s.587-5.447-1.796-6.839l-46.553-27.197a7 7 0 0 1-3.469-6.044V149.852a7 7 0 0 1 3.441-6.027c0-.001 46.601-27.518 46.601-27.518 2.376-1.403 3.166-4.471 1.764-6.847s-4.472-3.167-6.848-1.763z" fill="url(#G)"/><path d="M129.438 282.391l-52.5-22a5 5 0 0 0-6.543 2.679 5 5 0 0 0 2.679 6.543l52.501 22a5 5 0 0 0 6.543-2.679 5 5 0 0 0-2.679-6.543z" fill="url(#H)"/></g><path d="M197.506 112.002h-70v223h70v-223z" fill="url(#I)"/><g fill-rule="evenodd"><path d="M197.506 340.002a5 5 0 0 0 5-5v-223a5 5 0 0 0-5-5h-69.999a5 5 0 0 0-5.001 5v223a5 5 0 0 0 5.001 5h69.999zm-4.999-10h-60.001v-213h60.001v213z" fill="url(#J)"/><use xlink:href="#Q" fill="#fff"/><path d="M160.005 162.752h7c2.76 0 5-2.24 5-5s-2.24-5-5-5h-7c-2.76 0-5 2.24-5 5s2.24 5 5 5z" fill="url(#K)"/><path d="M163.256 193.003c12.832 0 23.25 10.419 23.25 23.25s-10.418 23.25-23.25 23.25-23.25-10.418-23.25-23.25 10.418-23.25 23.25-23.25zm0 10a13.26 13.26 0 0 1 13.25 13.25 13.26 13.26 0 0 1-13.25 13.251 13.26 13.26 0 0 1-13.25-13.251 13.26 13.26 0 0 1 13.25-13.25z" fill="#fff"/><path d="M168.509 219.752v-7c0-2.76-2.24-5-5-5s-5 2.24-5 5v7c0 2.76 2.24 5 5 5s5-2.24 5-5z" fill="url(#L)"/><g fill="#fff"><path d="M150.508 287.331h24c2.759 0 5-2.24 5-5s-2.241-5-5-5h-24c-2.76 0-5 2.24-5 5s2.24 5 5 5zm6.498 22h11c2.76 0 5-2.24 5-5s-2.24-5-5-5h-11c-2.76 0-5 2.24-5 5s2.24 5 5 5z"/></g><path d="M5.005 340.002h320.001c2.76 0 5-2.24 5-5s-2.24-5-5-5H5.005c-2.76 0-5 2.241-5 5s2.24 5 5 5z" fill="url(#M)"/><path d="M75.331 330.002H5.009c-2.76 0-5 2.241-5 5s2.24 5.001 5 5.001h70.321c2.76 0 5-2.241 5-5.001s-2.24-5-5-5z" fill="#fff"/><g fill="#151515"><path d="M340.011.002c-38.634 0-70 31.366-70 70s31.366 70.001 70 70.001 70.001-31.367 70.001-70.001-31.367-70-70.001-70zm0 10c33.115 0 60 26.885 60 60s-26.885 60-60 60-60-26.885-60-60 26.885-60 60-60z"/></g></g><path d="M340.011 130.002c33.138 0 60.001-26.862 60.001-60s-26.863-60-60.001-60-60 26.863-60 60 26.863 60 60 60z" fill="#151515"/><g fill-rule="evenodd"><path d="M340.013 10c33.115 0 60 26.885 60 60s-26.885 60-60 60-60-26.885-60-60 26.885-60 60-60zm0 10c27.596 0 50 22.404 50 50s-22.404 49.999-50 49.999-50-22.404-50-49.999 22.404-50 50-50z" fill="url(#N)"/><path d="M311.214 73.536l16.842 16.842c1.953 1.952 5.119 1.952 7.072 0l33.683-33.684c1.951-1.952 1.951-5.12 0-7.072s-5.12-1.951-7.072 0l-30.147 30.149-13.306-13.307c-1.952-1.951-5.12-1.951-7.072 0s-1.951 5.12 0 7.072z" fill="url(#O)"/></g></g><defs><linearGradient id="A" x1="70.305" y1="57.803" x2="350.322" y2="341.873" xlink:href="#R"><stop stop-color="#ff0cf5"/><stop offset="1" stop-color="#0575e6"/></linearGradient><linearGradient id="B" x1="230.655" y1="281.002" x2="230.655" y2="281.002" xlink:href="#R"><stop stop-color="#3aa0fe"/><stop offset="1" stop-color="#59fef4"/></linearGradient><linearGradient id="C" x1="242.364" y1="281.002" x2="242.364" y2="281.002" xlink:href="#R"><stop stop-color="#3aa0fe"/><stop offset="1" stop-color="#59fef4"/></linearGradient><linearGradient id="D" x1=".786" y1="177.212" x2=".786" y2="276.978" xlink:href="#R"><stop stop-color="#36ff78" stop-opacity=".8"/><stop offset="1" stop-color="#0cffff" stop-opacity=".15"/></linearGradient><linearGradient id="E" x1="251.172" y1="159.286" x2="278.339" y2="283.002" xlink:href="#R"><stop stop-color="#36ff78"/><stop offset="1" stop-color="#0cffff"/></linearGradient><linearGradient id="F" x1="75.007" y1="244.331" x2="127.507" y2="131.502" xlink:href="#R"><stop stop-color="#a83afe"/><stop offset="1" stop-color="#6e59fe"/></linearGradient><linearGradient id="G" x1="75.007" y1="304.33" x2="127.507" y2="112.002" xlink:href="#R"><stop stop-color="#3aa0fe"/><stop offset="1" stop-color="#59fef4"/></linearGradient><linearGradient id="H" x1="75.006" y1="265.002" x2="127.506" y2="287.002" xlink:href="#R"><stop stop-color="#41b5fc"/><stop offset="1" stop-color="#46c3fa"/></linearGradient><linearGradient id="I" x1="156.006" y1="326.002" x2="180.006" y2="189.332" xlink:href="#R"><stop stop-color="#a83afe"/><stop offset="1" stop-color="#6e59fe"/></linearGradient><linearGradient id="J" x1="231.006" y1="350.002" x2="127.507" y2="112.002" xlink:href="#R"><stop stop-color="#3aa0fe"/><stop offset="1" stop-color="#59fef4"/></linearGradient><linearGradient id="K" x1="160.005" y1="157.752" x2="167.005" y2="157.752" xlink:href="#R"><stop stop-color="#3aa0fe"/><stop offset="1" stop-color="#59fef4"/></linearGradient><linearGradient id="L" x1="163.509" y1="219.752" x2="163.509" y2="212.752" xlink:href="#R"><stop stop-color="#3aa0fe"/><stop offset="1" stop-color="#59fef4"/></linearGradient><linearGradient id="M" x1=".005" y1="335.002" x2="313.006" y2="335.002" xlink:href="#R"><stop stop-color="#3aa0fe"/><stop offset="1" stop-color="#59fef4"/></linearGradient><linearGradient id="N" x1="280.013" y1="70" x2="400.013" y2="70" xlink:href="#R"><stop stop-color="#36ff78"/><stop offset="1" stop-color="#0cffff"/></linearGradient><linearGradient id="O" x1="310.012" y1="75.001" x2="365.012" y2="90.001" xlink:href="#R"><stop stop-color="#36ff78"/><stop offset="1" stop-color="#0cffff"/></linearGradient><clipPath id="P"><path fill="#fff" d="M0 0h410v410H0z"/></clipPath><path id="Q" d="M163.256 134.503c12.832 0 23.25 10.419 23.25 23.25s-10.418 23.25-23.25 23.25-23.25-10.418-23.25-23.25 10.418-23.25 23.25-23.25zm0 10a13.26 13.26 0 0 1 13.25 13.25 13.26 13.26 0 0 1-13.25 13.251 13.26 13.26 0 0 1-13.25-13.251 13.26 13.26 0 0 1 13.25-13.25z"/><linearGradient id="R" gradientUnits="userSpaceOnUse"/></defs></svg>
